!! 00000] TT[00
!! NN
!!!OTL: Xiu hebao
!!!ARE: Asia, China,ˇShandong, Huangxian
!! Ethnic Group: Han
!! III, 375
!!!SCT: C0311
!!!YEM: Copyright 1995, estate of Helmut Schaffrath.
**kern
*ICvox
*Ivox
*M2/4
*k[b-]
*F:
{4dd
8dd
8cc
=1
4dd
8dd
8ff
=2
4a
8ff
8dd
=3
2cc}
=4
{8cc
8dd
8ff
16gg
16ee
=5
8dd
8cc
4a
=6
[2g
=7
2g]}
=8
{4.a
8cc
=9
4dd
4ff
=10
4cc
4dd
=11
2g
=12
8cc
8dd
8cc
8a
=13
4g
4cc
=14
4.a
8g
=15
2a}
=16
{4.g
8a
=17
4cc
4ff
=18
4.g
8a
=19
4f
4e
=20
4.d
8c
=21
2d}
=22
{4gg
4ee
=23
4dd
8cc
8dd
=24
4.ff
8dd
=25
2cc}
=26
{8a
8g
8a
8ff
=27
8dd
8cc
4a
=28
2g}
=29
{4.a
8cc
=30
4dd
4ff
=31
4cc
4dd
=32
2g
=33
8.cc
16dd
8cc
8a
=34
8g
8a
4b-
=35
4.a
8g
=36
2f}
=37
{4.g
8a
=38
4cc
4ff
=39
4.g
8a
=40
4f
4e
=41
4.d
8c
=42
2d}
==
!!!AGN: Xiaodiao, Xiuhebao diao. NannÅ siqing
!! Vereinzelt Verzierungen, Glissandi.
!!    Variante zu I, 57, 1)! Die Xiao ist aber hier typischer, weil
!!    nicht veraendert wurde.
!!!ONB: ESAC (Essen Associative Code) Database: CHINA
!!!AMT: simple duple
!!!AIN: vox
!!!EED: Helmut Schaffrath
!!!EEV: 1.0
*-
!!!ONB: Tied note syntax fixed by Craig Sapp, 2004/05/03/
